img/icon/search-icon.svg

<svg xmlns="http://www.w3.org/2000/svg" preserveAspectRatio="xMidYMid" width="30" height="30" viewBox="0 0 30 30"><path d="M28.978 25.198c.505.509.818 1.212.818 1.989a2.803 2.803 0 0 1-2.793 2.812c-.772 0-1.47-.314-1.976-.824l-8.186-8.242a11.057 11.057 0 0 1-5.668 1.566C5.003 22.499 0 17.462 0 11.249S5.003-.001 11.173-.001c6.171 0 11.174 5.037 11.174 11.25 0 2.086-.574 4.032-1.556 5.707l8.187 8.242zM11.173 2.812c-4.628 0-8.38 3.777-8.38 8.437 0 4.66 3.752 8.437 8.38 8.437 4.629 0 8.381-3.777 8.381-8.437 0-4.66-3.752-8.437-8.381-8.437z" fill-rule="evenodd"/></svg>

<svg xmlns="http://www.w3.org/2000/svg" xmlns:xlink="http://www.w3.org/1999/xlink" preserveAspectRatio="xMidYMid" width="30" height="30" viewBox="0 0 30 30">
  <defs>
  </defs>
  <path d="M28.978,25.198 C29.483,25.707 29.796,26.410 29.796,27.187 C29.796,28.740 28.545,29.999 27.003,29.999 C26.231,29.999 25.533,29.685 25.027,29.175 C25.027,29.175 25.027,29.175 25.027,29.175 C25.027,29.175 16.841,20.933 16.841,20.933 C15.178,21.921 13.245,22.499 11.173,22.499 C5.003,22.499 0.000,17.462 0.000,11.249 C0.000,5.036 5.003,-0.001 11.173,-0.001 C17.344,-0.001 22.347,5.036 22.347,11.249 C22.347,13.335 21.773,15.281 20.791,16.956 C20.791,16.956 28.978,25.198 28.978,25.198 C28.978,25.198 28.978,25.198 28.978,25.198 ZM11.173,2.812 C6.545,2.812 2.793,6.589 2.793,11.249 C2.793,15.909 6.545,19.686 11.173,19.686 C15.802,19.686 19.554,15.909 19.554,11.249 C19.554,6.589 15.802,2.812 11.173,2.812 Z" id="search" fill-rule="evenodd"/>
</svg>
